Apricity Icons/24/panel/guake-indicator.svg

<svg xmlns="http://www.w3.org/2000/svg" width="24" height="24" version="1.1">
 <defs>
  <style id="current-color-scheme" type="text/css">
   .ColorScheme-Text { color:#dfdfdf; } .ColorScheme-Highlight { color:#4285f4; }
  </style>
 </defs>
 <g>
  <path style="fill:currentColor" class="ColorScheme-Text" d="M 5.9999771,4 C 4.8920055,4 4,4.8919964 4,5.9999771 L 4,18.000023 C 4,19.107994 4.8919964,20 5.9999771,20 L 18.000023,20 C 19.107994,20 20,19.108004 20,18.000023 L 20,5.9999771 C 20,4.8920055 19.108004,4 18.000023,4 Z m 3.9999542,1.9999771 0,0.9999885 2.9999657,0 0,1.9999771 -2.9999657,0 0,0.9999883 0.9999887,0 c 0.749996,0 1.439987,0.317001 1.873019,0.804996 0.432995,0.486996 0.626998,1.09798 0.626998,1.695003 0,0.596996 -0.194003,1.209996 -0.626998,1.69702 -0.432995,0.487995 -1.123005,0.802997 -1.873019,0.802997 l -0.9999887,0 0,0.999989 -0.9999886,0 0,-0.999989 -2.9999656,0 0,-1.999977 2.9999656,0 0,-0.999988 -0.9999885,0 c -0.749996,0 -1.4398039,-0.315003 -1.8730192,-0.802998 -0.4332978,-0.486996 -0.626998,-1.099996 -0.626998,-1.69702 0,-0.5971968 0.1937002,-1.2078874 0.626998,-1.6952776 C 6.560132,7.3172871 7.2499398,6.9999931 7.9999542,6.9999931 l 0.9999885,0 0,-1.0000023 z M 7.9999542,8.9999427 c -0.2500018,0 -0.3101991,0.0597 -0.3769964,0.1347954 -0.066696,0.0751 -0.1229979,0.2125009 -0.1229979,0.3651989 0,0.152799 0.056302,0.292104 0.1229979,0.367197 0.066797,0.0748 0.1269946,0.132797 0.3769964,0.132797 l 0.9999885,0 0,-0.9999883 z m 2.0000688,4.0000463 0.999988,0 c 0.250002,0 0.309998,-0.058 0.376997,-0.132999 0.067,-0.075 0.122998,-0.214005 0.122998,-0.366996 0,-0.153 -0.056,-0.289995 -0.122998,-0.364997 -0.06692,-0.07517 -0.1265,-0.13475 -0.376749,-0.13475 l -1.000112,-1.24e-4 z m 2.999966,2.999965 4.999942,0 0,1.999977 -4.999942,0 z"/>
 </g>
</svg>

<svg xmlns="http://www.w3.org/2000/svg" width="24" height="24"><defs><style id="current-color-scheme" type="text/css"></style></defs><path d="M6 4c-1.108 0-2 .892-2 2v12c0 1.108.892 2 2 2h12c1.108 0 2-.892 2-2V6c0-1.108-.892-2-2-2zm4 2v1h3v2h-3v1h1c.75 0 1.44.317 1.873.805.433.487.627 1.098.627 1.695s-.194 1.21-.627 1.697C12.44 14.685 11.75 15 11 15h-1v1H9v-1H6v-2h3v-1H8c-.75 0-1.44-.315-1.873-.803A2.537 2.537 0 0 1 5.5 9.5c0-.597.194-1.208.627-1.695C6.56 7.317 7.25 7 8 7h1V6zM8 9c-.25 0-.31.06-.377.135A.574.574 0 0 0 7.5 9.5a.58.58 0 0 0 .123.367C7.69 9.942 7.75 10 8 10h1V9zm2 4h1c.25 0 .31-.058.377-.133a.576.576 0 0 0 .123-.367.57.57 0 0 0-.123-.365C11.31 12.06 11.251 12 11 12h-1zm3 3h5v2h-5z" fill="currentColor" color="#dfdfdf"/></svg>
